X:119
T:score203
L:1/8
Q:1/4=96
M:3/4
I:linebreak $
K:G
"_contabile ed espressivo" !>!g4 | (3(fef) d4 | (c/d/c/d/) e4 |!>(! (!>!d2 A)!>)! z !>!d2- |$ %4
 d!<(!(^G !>!e3!<)! d) | (3(cBc) A4 | z!<(! (ABc) B!<)!A |!>(! (((!>!d2 A)))!>)! z !>!d2- |$ %8
 d z !>!g4 |] %9
